X: 14
T: Portsmouth
C: Trad
M: 4/4
L: 1/8
Q:1/4= 207
K:G
D2|:G3 A BAGF|E4 e4|d2 B2 cBAG|A6 D2
  | G3 A BAGF|E4 e4|d2B2 cBAB|1 G6 D2 :|2 G6 d2
  |:g3 a bagf|g2 d2 B2 d2|g2 B2 cBAG |A6 D2
  | G3 A BAGF|E4 e4|d2 B2 cBAB|1 G6 d2 :|2 G6 z2 ||
